X:1
T:Fight Glockenspiel
M:4/4
L:1/8
Q:1/4=120
K:Bb
%%MIDI program 9
|: B2 d2 f2 d2 | c2 e2 g2 e2 | B2 d2 c2 e2 | d4 z4 |
B2 d2 f2 d2 | c2 e2 g2 e2 | d2 c2 B2 c2 | B4 z4 :|
